X:4
T:March 
T:John Malchair's Third Collection of Tunes
%%VWML:Malchair-3619-p4
F:https://www.vwml.org/record/Malchair/3619/p4
F:www.vwml.org/topics/historic-dance-and-tune-books/Malchair
Z:David Jacobs Jan 2020
M:C|
L:1/8
K:D
d4f3d|a2f2d2A/|d4 {f}edcB|A3B A2^A2|B4c4 cBAG|F3GF2f2|e3d cdef|
d3c BCDE|(3cde (3fed c2B2|A2F2c3a|e3c edcB|A2E2c3a|e3c edcB|A2 A>A A2z2:|
|:A4c3A|e2c2A2z2|e4 (gfef)|g3f efga|f2e2d2e2|f2e2d2e2|f2 a>a a2fd|a2 A>A A2 zz2A/|
d4 eddcB|A3B A2^A|B4 c4 cBAg|F3G F2A2|(3Bcd (3efg f3e2|d2A2f3d|a3f agfe|
B2d2A2f3d|a3f agfe|d2d>d d2z2:|c4 A2A3 Bc|(d6A4)F2|F4B2A3FD2|(E6E4)d2|c3B A2A3Bc2|(d6D4)F2|G3AB A3F2D2|]
